X:5824
T:Schottis 2
O:england
C:August Johansson, Hälsingland
M:2/4
L:1/16
K:C
G,C|E2E2 F2F2|EGEC G,2CE|D2DD DFDB,|C2CC C2:|\
|:CD|E2EF EGEC|F2FE FAFD|
B2Bc BdBG|c2cB cecG|\
E2EF EGEC|F2FE FAFD|B2Bc BdBG|c2c2 c2:|


